design-system/icons/change_circle--labs-icons.svg

<svg width="21" height="20" viewBox="0 0 21 20" fill="none" xmlns="http://www.w3.org/2000/svg">
<g clip-path="url(#clip0_234_242)">
<mask id="mask0_234_242" style="mask-type:alpha" maskUnits="userSpaceOnUse" x="0" y="0" width="24" height="24">
<rect x="0.333374" width="23.0833" height="23.0833" fill="currentColor"/>
</mask>
<g mask="url(#mask0_234_242)">
<path d="M9.85421 12.1875C9.57643 12.1319 9.31601 12.0451 9.07296 11.927C8.8299 11.809 8.61115 11.6527 8.41671 11.4583C8.16671 11.2083 7.97226 10.9201 7.83337 10.5937C7.69449 10.2673 7.62504 9.92357 7.62504 9.56246C7.62504 9.45135 7.63546 9.34024 7.65629 9.22913C7.67712 9.11802 7.70143 9.00691 7.72921 8.89579C7.79865 8.65968 7.79518 8.43746 7.71879 8.22913C7.6424 8.02079 7.50004 7.86107 7.29171 7.74996C7.08337 7.63885 6.8681 7.62149 6.64587 7.69788C6.42365 7.77427 6.27782 7.92357 6.20837 8.14579C6.13893 8.3819 6.0799 8.61454 6.03129 8.84371C5.98268 9.07288 5.95837 9.30552 5.95837 9.54163C5.95837 10.125 6.06949 10.6875 6.29171 11.2291C6.51393 11.7708 6.82643 12.243 7.22921 12.6458C7.57643 12.993 7.97226 13.2708 8.41671 13.4791C8.86115 13.6875 9.32643 13.8194 9.81254 13.875L9.77088 13.9166C9.6181 14.0833 9.54518 14.2812 9.55213 14.5104C9.55907 14.7395 9.63893 14.9305 9.79171 15.0833C9.94449 15.2361 10.1389 15.3125 10.375 15.3125C10.6112 15.3125 10.8056 15.2361 10.9584 15.0833L12.25 13.7916C12.4723 13.5694 12.5834 13.309 12.5834 13.0104C12.5834 12.7118 12.4723 12.4514 12.25 12.2291L10.9792 10.9583C10.8264 10.8055 10.6355 10.7291 10.4063 10.7291C10.1771 10.7291 9.97921 10.8055 9.81254 10.9583C9.64588 11.125 9.56254 11.3229 9.56254 11.552C9.56254 11.7812 9.64588 11.9791 9.81254 12.1458L9.85421 12.1875ZM10.8125 6.89579C11.0903 6.95135 11.3507 7.03815 11.5938 7.15621C11.8368 7.27427 12.0556 7.43052 12.25 7.62496C12.5 7.87496 12.6945 8.16315 12.8334 8.48954C12.9723 8.81593 13.0417 9.15968 13.0417 9.52079C13.0417 9.63191 13.0348 9.73954 13.0209 9.84371C13.007 9.94788 12.9862 10.0555 12.9584 10.1666C12.8889 10.4027 12.8993 10.625 12.9896 10.8333C13.0799 11.0416 13.2292 11.1805 13.4375 11.25C13.6737 11.3333 13.8959 11.3263 14.1042 11.2291C14.3125 11.1319 14.4514 10.9652 14.5209 10.7291C14.5764 10.5347 14.6216 10.3368 14.6563 10.1354C14.691 9.93399 14.7084 9.73607 14.7084 9.54163C14.7084 8.95829 14.5973 8.39579 14.375 7.85413C14.1528 7.31246 13.8403 6.84024 13.4375 6.43746C13.0903 6.09024 12.6945 5.81246 12.25 5.60413C11.8056 5.39579 11.3403 5.26385 10.8542 5.20829L10.8959 5.16663C11.0487 4.99996 11.1216 4.80204 11.1146 4.57288C11.1077 4.34371 11.0278 4.15274 10.875 3.99996C10.7223 3.84718 10.5278 3.77079 10.2917 3.77079C10.0556 3.77079 9.86115 3.84718 9.70838 3.99996L8.41671 5.29163C8.19449 5.51385 8.08338 5.77427 8.08338 6.07288C8.08338 6.37149 8.19449 6.6319 8.41671 6.85413L9.68754 8.12496C9.84032 8.27774 10.0313 8.35413 10.2605 8.35413C10.4896 8.35413 10.6875 8.27774 10.8542 8.12496C11.0209 7.95829 11.1042 7.76038 11.1042 7.53121C11.1042 7.30204 11.0209 7.10413 10.8542 6.93746L10.8125 6.89579ZM10.3334 18.5416C9.08338 18.5416 7.91324 18.3055 6.82296 17.8333C5.73268 17.3611 4.78129 16.7187 3.96879 15.9062C3.15629 15.0937 2.51393 14.1423 2.04171 13.052C1.56949 11.9618 1.33337 10.7916 1.33337 9.54163C1.33337 8.29163 1.56949 7.11802 2.04171 6.02079C2.51393 4.92357 3.15629 3.96871 3.96879 3.15621C4.78129 2.34371 5.73268 1.70482 6.82296 1.23954C7.91324 0.774265 9.08338 0.541626 10.3334 0.541626C11.5834 0.541626 12.757 0.774265 13.8542 1.23954C14.9514 1.70482 15.9063 2.34371 16.7188 3.15621C17.5313 3.96871 18.1702 4.92357 18.6355 6.02079C19.1007 7.11802 19.3334 8.29163 19.3334 9.54163C19.3334 10.7916 19.1007 11.9618 18.6355 13.052C18.1702 14.1423 17.5313 15.0937 16.7188 15.9062C15.9063 16.7187 14.9514 17.3611 13.8542 17.8333C12.757 18.3055 11.5834 18.5416 10.3334 18.5416Z" fill="currentColor"/>
</g>
</g>
<defs>
<clipPath id="clip0_234_242">
<rect width="20" height="20" fill="white" transform="translate(0.333374)"/>
</clipPath>
</defs>
</svg>

<svg xmlns="http://www.w3.org/2000/svg" width="21" height="20" fill="none" viewBox="0 0 21 20"><g clip-path="url(#a)"><mask id="b" width="24" height="24" x="0" y="0" maskUnits="userSpaceOnUse" style="mask-type:alpha"><path fill="currentColor" d="M.333 0h23.083v23.083H.333z"/></mask><g mask="url(#b)"><path fill="currentColor" d="M9.854 12.188a3.2 3.2 0 0 1-.781-.261 2.4 2.4 0 0 1-.656-.469 2.7 2.7 0 0 1-.584-.864 2.6 2.6 0 0 1-.208-1.032q0-.166.031-.333a6 6 0 0 1 .073-.333 1.04 1.04 0 0 0-.01-.667.87.87 0 0 0-.427-.479.78.78 0 0 0-.646-.052.66.66 0 0 0-.438.448q-.104.354-.177.698-.072.344-.073.698 0 .875.334 1.687.333.813.937 1.417a4.2 4.2 0 0 0 1.188.833q.667.313 1.396.396l-.042.042a.8.8 0 0 0-.219.593q.01.344.24.573a.8.8 0 0 0 .583.23.8.8 0 0 0 .583-.23l1.292-1.291a1.07 1.07 0 0 0 .333-.782 1.07 1.07 0 0 0-.333-.78l-1.27-1.272a.78.78 0 0 0-.574-.229.85.85 0 0 0-.593.23.8.8 0 0 0-.25.593q0 .344.25.594zm.959-5.292q.416.083.78.26.366.178.657.469.375.375.583.865a2.6 2.6 0 0 1 .125 1.677.95.95 0 0 0 .032.666.72.72 0 0 0 .447.417.85.85 0 0 0 .667-.02.76.76 0 0 0 .417-.5q.083-.292.135-.595.052-.302.052-.593 0-.875-.333-1.688a4.3 4.3 0 0 0-.937-1.417 4.2 4.2 0 0 0-1.188-.833 4.5 4.5 0 0 0-1.396-.396l.042-.041a.8.8 0 0 0 .219-.594.81.81 0 0 0-.24-.573.8.8 0 0 0-.583-.23.8.8 0 0 0-.584.23L8.417 5.292a1.07 1.07 0 0 0-.334.78q0 .45.334.782l1.27 1.271q.23.23.574.23a.85.85 0 0 0 .593-.23.81.81 0 0 0 .25-.594.81.81 0 0 0-.25-.594zm-.48 11.646q-1.875 0-3.51-.709a9.1 9.1 0 0 1-2.854-1.927 9.1 9.1 0 0 1-1.927-2.854 8.7 8.7 0 0 1-.709-3.51q0-1.875.709-3.521a9.1 9.1 0 0 1 1.927-2.865A9 9 0 0 1 6.823 1.24a8.85 8.85 0 0 1 3.51-.698q1.875 0 3.521.698a8.9 8.9 0 0 1 2.865 1.916 8.9 8.9 0 0 1 1.916 2.865 8.9 8.9 0 0 1 .698 3.52 8.85 8.85 0 0 1-.697 3.511 9 9 0 0 1-1.917 2.854 9.1 9.1 0 0 1-2.865 1.927 8.8 8.8 0 0 1-3.52.709"/></g></g><defs><clipPath id="a"><path fill="#fff" d="M.333 0h20v20h-20z"/></clipPath></defs></svg>
